src/assets/combined-shape.svg

<svg width="29" height="11" viewBox="0 0 29 11" fill="none" xmlns="http://www.w3.org/2000/svg">
<path fill-rule="evenodd" clip-rule="evenodd" d="M28.4808 0.658143L0.819046 0.878845L0.835003 2.87878L28.4968 2.65808L28.4808 0.658143ZM28.5447 8.65789L0.882873 8.87859L0.89883 10.8785L28.5606 10.6578L28.5447 8.65789Z" fill="#151515"/>
</svg>

<svg width="29" height="11" fill="none" xmlns="http://www.w3.org/2000/svg"><path fill-rule="evenodd" clip-rule="evenodd" d="M28.48.658.82.878l.016 2 27.662-.22-.016-2zm.065 8-27.662.22.016 2 27.662-.22-.016-2z" fill="#151515"/></svg>
